!!!OTL: Die Nachtpatrouille Schoenster Schatz erlaub es mir
!!!ARE: Europa, Mitteleuropa, Deutschland, Baden, Freiburg i. Brsg.
!!!SCT: D0100
!!!YEM: Copyright 1995, estate of Helmut Schaffrath.
**kern
*ICvox
*Ivox
*M4/4
*k[f#]
*G:
{4.d
8c
=1
4B
4d
4g
4b
=2
2b
2a
=3
2r
2r}
=4
{2.a
4g
=5
4f#
4e
4d
4f#
=6
2g}
{4.d
8c
=7
4B
4d
4g
4b
=8
4b
4a
2a
=9
2r
2r}
=10
{2.a
4g
=11
4f#
4e
4d
4f#
=12
4g
4a
4b
4r
=13
2r}
{4g
8b
8dd
=14
2dd
2b
=15
4dd
4cc
4b
4cc
=16
2b}
{4g
8b
8dd
=17
2dd
2b
=18
4dd
4cc
4b
4cc
=19
2b}
==
!!!AGN: Soldaten - Lied
!! Pause in der vierten Zeile eingefuegt; Inzipit = Variante zum Lied
!!!ONB: ESAC (Essen Associative Code) Database: DVA
!!!AMT: simple quadruple
!!!AIN: vox
!!!EED: Helmut Schaffrath
!!!EEV: 1.0
*-
